apps/web/public/favicon.svg

<svg xmlns="http://www.w3.org/2000/svg" fill="none" viewBox="0 0 512 512"><g clip-path="url(#a)"><rect width="512" height="512" fill="#F2F7BA" rx="102.4"/><path fill="#ADA185" d="M0 66h512v12H0zM0 158h512v12H0zM0 250h512v12H0zM0 342h512v12H0zM0 434h512v12H0z"/><rect width="500" height="500" x="6" y="6" stroke="#ADA185" stroke-width="12" rx="96.4"/><g filter="url(#b)"><rect width="512" height="512" fill="url(#c)" rx="102.4"/></g><g clip-path="url(#d)" filter="url(#e)"><path fill="url(#f)" fill-rule="evenodd" d="M77 396.276v-45.34c18.892-6.297 34.792-13.067 47.702-20.309a112.088 112.088 0 0 0 13.13-8.548c4.477-3.413 8.347-7.003 11.609-10.768a60.48 60.48 0 0 0 4.071-5.243c6.297-9.131 9.446-19.994 9.446-32.588a30.51 30.51 0 0 0-1.219-8.879 22.521 22.521 0 0 0-9.172-12.375 255.582 255.582 0 0 0-11.127-7.141 336.7 336.7 0 0 0-12.535-7.264l-.425-.236a78.167 78.167 0 0 1-21.773-17.956 90.65 90.65 0 0 1-2.314-2.825c-4.975-6.329-8.164-14.931-9.569-25.806-.569-4.6-.843-9.232-.821-13.867a74.776 74.776 0 0 1 2.172-18.57 51.56 51.56 0 0 1 16.247-26.77c12.28-10.705 27.866-16.058 46.757-16.058a82.103 82.103 0 0 1 29.698 5.195 73.701 73.701 0 0 1 28.867 20.309c13.873 15.611 21.379 36.524 22.519 62.74.102 2.385.153 4.772.151 7.16 0 40.302-12.437 77.141-37.311 110.517-19.188 25.749-48.593 46.439-88.215 62.069A377.657 377.657 0 0 1 77 396.276Zm194.586 0v-45.34c18.892-6.297 34.635-13.067 47.229-20.309 10.699-6.152 19.128-12.988 25.287-20.507a61.633 61.633 0 0 0 3.051-4.052c6.297-9.131 9.446-19.994 9.446-32.588a30.476 30.476 0 0 0-1.219-8.879 22.517 22.517 0 0 0-9.172-12.375 254.978 254.978 0 0 0-11.127-7.141 335.888 335.888 0 0 0-12.535-7.264l-.425-.236a78.148 78.148 0 0 1-21.772-17.956 90.681 90.681 0 0 1-2.315-2.825c-4.975-6.329-8.164-14.931-9.568-25.806-.57-4.6-.844-9.232-.822-13.867a72.687 72.687 0 0 1 2.333-18.958 51.31 51.31 0 0 1 16.559-26.382 66.805 66.805 0 0 1 34.874-15.236 89.727 89.727 0 0 1 12.355-.822 82.11 82.11 0 0 1 29.698 5.195 73.708 73.708 0 0 1 28.867 20.309c13.873 15.611 21.379 36.524 22.519 62.74.102 2.385.152 4.772.151 7.16 0 40.302-12.437 77.141-37.311 110.517-19.188 25.749-48.593 46.439-88.216 62.069a377.605 377.605 0 0 1-37.887 12.553Z" clip-rule="evenodd"/></g></g><defs><clipPath id="a"><rect width="512" height="512" fill="#fff" rx="102.4"/></clipPath><clipPath id="d"><path fill="#fff" d="M0 0h358v280.553H0z" transform="rotate(180 217.5 198.138)"/></clipPath><filter id="b" width="512" height="512" x="0" y="0" color-interpolation-filters="sRGB" filterUnits="userSpaceOnUse"><feFlood flood-opacity="0" result="BackgroundImageFix"/><feBlend in="SourceGraphic" in2="BackgroundImageFix" result="shape"/><feColorMatrix in="SourceAlpha" result="hardAlpha" values="0 0 0 0 0 0 0 0 0 0 0 0 0 0 0 0 0 0 127 0"/><feOffset/><feGaussianBlur stdDeviation="12"/><feComposite in2="hardAlpha" k2="-1" k3="1" operator="arithmetic"/><feColorMatrix values="0 0 0 0 0.847059 0 0 0 0 0.878431 0 0 0 0 0.443137 0 0 0 0.25 0"/><feBlend in2="shape" result="effect1_innerShadow_18_3633"/><feColorMatrix in="SourceAlpha" result="hardAlpha" values="0 0 0 0 0 0 0 0 0 0 0 0 0 0 0 0 0 0 127 0"/><feOffset/><feGaussianBlur stdDeviation="12"/><feComposite in2="hardAlpha" k2="-1" k3="1" operator="arithmetic"/><feColorMatrix values="0 0 0 0 0 0 0 0 0 0 0 0 0 0 0 0 0 0 0.2 0"/><feBlend in2="effect1_innerShadow_18_3633" result="effect2_innerShadow_18_3633"/></filter><filter id="e" width="358" height="280.553" x="77" y="115.724" color-interpolation-filters="sRGB" filterUnits="userSpaceOnUse"><feFlood flood-opacity="0" result="BackgroundImageFix"/><feBlend in="SourceGraphic" in2="BackgroundImageFix" result="shape"/><feColorMatrix in="SourceAlpha" result="hardAlpha" values="0 0 0 0 0 0 0 0 0 0 0 0 0 0 0 0 0 0 127 0"/><feOffset dy="8"/><feComposite in2="hardAlpha" k2="-1" k3="1" operator="arithmetic"/><feColorMatrix values="0 0 0 0 1 0 0 0 0 1 0 0 0 0 1 0 0 0 0.2 0"/><feBlend in2="shape" result="effect1_innerShadow_18_3633"/><feColorMatrix in="SourceAlpha" result="hardAlpha" values="0 0 0 0 0 0 0 0 0 0 0 0 0 0 0 0 0 0 127 0"/><feOffset dy="-4"/><feComposite in2="hardAlpha" k2="-1" k3="1" operator="arithmetic"/><feColorMatrix values="0 0 0 0 0 0 0 0 0 0 0 0 0 0 0 0 0 0 0.25 0"/><feBlend in2="effect1_innerShadow_18_3633" result="effect2_innerShadow_18_3633"/></filter><radialGradient id="c" cx="0" cy="0" r="1" gradientTransform="rotate(90 0 256) scale(256)" gradientUnits="userSpaceOnUse"><stop stop-color="#fff" stop-opacity=".7"/><stop offset=".9" stop-color="#fff" stop-opacity=".1"/></radialGradient><linearGradient id="f" x1="256" x2="256" y1="115.728" y2="396.276" gradientUnits="userSpaceOnUse"><stop stop-color="#887A5E"/><stop offset="1" stop-color="#6A5F49"/></linearGradient></defs></svg>

<svg width="512" height="512" viewBox="0 0 512 512" fill="none" xmlns="http://www.w3.org/2000/svg">
<g clip-path="url(#clip0_18_3633)">
<rect width="512" height="512" rx="102.4" fill="#F2F7BA"/>
<rect width="512" height="12" transform="translate(0 66)" fill="#ADA185"/>
<rect width="512" height="12" transform="translate(0 158)" fill="#ADA185"/>
<rect width="512" height="12" transform="translate(0 250)" fill="#ADA185"/>
<rect width="512" height="12" transform="translate(0 342)" fill="#ADA185"/>
<rect width="512" height="12" transform="translate(0 434)" fill="#ADA185"/>
<rect x="6" y="6" width="500" height="500" rx="96.4" stroke="#ADA185" stroke-width="12"/>
<g filter="url(#filter0_ii_18_3633)">
<rect width="512" height="512" rx="102.4" fill="url(#paint0_radial_18_3633)"/>
</g>
<g clip-path="url(#clip1_18_3633)" filter="url(#filter1_ii_18_3633)">
<path fill-rule="evenodd" clip-rule="evenodd" d="M77 396.276V350.936C95.8918 344.639 111.792 337.869 124.702 330.627C129.272 328.088 133.66 325.231 137.832 322.079C142.309 318.666 146.179 315.076 149.441 311.311C150.893 309.639 152.252 307.889 153.512 306.068C159.809 296.937 162.958 286.074 162.958 273.48C162.991 270.476 162.58 267.484 161.739 264.601C160.231 259.526 156.984 255.145 152.567 252.226C148.92 249.75 145.21 247.369 141.44 245.085C137.529 242.699 133.351 240.277 128.905 237.821C128.764 237.743 128.622 237.664 128.48 237.585C120.193 232.97 112.815 226.886 106.707 219.629C105.917 218.703 105.145 217.761 104.393 216.804C99.4183 210.475 96.2287 201.873 94.8244 190.998C94.2551 186.398 93.9806 181.766 94.0026 177.131C93.947 170.875 94.6769 164.636 96.1752 158.561C98.685 148.169 104.362 138.814 112.422 131.791C124.702 121.086 140.288 115.733 159.179 115.733C169.315 115.617 179.384 117.378 188.877 120.928C200.002 125.26 209.909 132.229 217.744 141.237C231.617 156.848 239.123 177.761 240.263 203.977C240.365 206.362 240.416 208.749 240.414 211.137C240.414 251.439 227.977 288.278 203.103 321.654C183.915 347.403 154.51 368.093 114.888 383.723C102.488 388.572 89.8416 392.763 77 396.276ZM271.586 396.276V350.936C290.478 344.639 306.221 337.869 318.815 330.627C329.514 324.475 337.943 317.639 344.102 310.12C345.174 308.812 346.192 307.46 347.153 306.068C353.45 296.937 356.599 286.074 356.599 273.48C356.632 270.476 356.222 267.484 355.38 264.601C353.873 259.526 350.625 255.145 346.208 252.226C342.562 249.75 338.851 247.369 335.081 245.085C331.171 242.699 326.992 240.277 322.546 237.821C322.405 237.743 322.263 237.664 322.121 237.585C313.834 232.97 306.456 226.886 300.349 219.629C299.558 218.703 298.787 217.761 298.034 216.804C293.059 210.475 289.87 201.873 288.466 190.998C287.896 186.398 287.622 181.766 287.644 177.131C287.584 170.737 288.369 164.363 289.977 158.173C292.629 147.876 298.416 138.657 306.536 131.791C316.437 123.439 328.554 118.145 341.41 116.555C345.504 115.997 349.633 115.722 353.765 115.733C363.9 115.617 373.969 117.378 383.463 120.928C394.588 125.26 404.494 132.229 412.33 141.237C426.203 156.848 433.709 177.761 434.849 203.977C434.951 206.362 435.001 208.749 435 211.137C435 251.439 422.563 288.278 397.689 321.654C378.501 347.403 349.096 368.093 309.473 383.723C297.074 388.572 284.427 392.763 271.586 396.276Z" fill="url(#paint1_linear_18_3633)"/>
</g>
</g>
<defs>
<filter id="filter0_ii_18_3633" x="0" y="0" width="512" height="512" filterUnits="userSpaceOnUse" color-interpolation-filters="sRGB">
<feFlood flood-opacity="0" result="BackgroundImageFix"/>
<feBlend mode="normal" in="SourceGraphic" in2="BackgroundImageFix" result="shape"/>
<feColorMatrix in="SourceAlpha" type="matrix" values="0 0 0 0 0 0 0 0 0 0 0 0 0 0 0 0 0 0 127 0" result="hardAlpha"/>
<feOffset/>
<feGaussianBlur stdDeviation="12"/>
<feComposite in2="hardAlpha" operator="arithmetic" k2="-1" k3="1"/>
<feColorMatrix type="matrix" values="0 0 0 0 0.847059 0 0 0 0 0.878431 0 0 0 0 0.443137 0 0 0 0.25 0"/>
<feBlend mode="normal" in2="shape" result="effect1_innerShadow_18_3633"/>
<feColorMatrix in="SourceAlpha" type="matrix" values="0 0 0 0 0 0 0 0 0 0 0 0 0 0 0 0 0 0 127 0" result="hardAlpha"/>
<feOffset/>
<feGaussianBlur stdDeviation="12"/>
<feComposite in2="hardAlpha" operator="arithmetic" k2="-1" k3="1"/>
<feColorMatrix type="matrix" values="0 0 0 0 0 0 0 0 0 0 0 0 0 0 0 0 0 0 0.2 0"/>
<feBlend mode="normal" in2="effect1_innerShadow_18_3633" result="effect2_innerShadow_18_3633"/>
</filter>
<filter id="filter1_ii_18_3633" x="77" y="115.724" width="358" height="280.553" filterUnits="userSpaceOnUse" color-interpolation-filters="sRGB">
<feFlood flood-opacity="0" result="BackgroundImageFix"/>
<feBlend mode="normal" in="SourceGraphic" in2="BackgroundImageFix" result="shape"/>
<feColorMatrix in="SourceAlpha" type="matrix" values="0 0 0 0 0 0 0 0 0 0 0 0 0 0 0 0 0 0 127 0" result="hardAlpha"/>
<feOffset dy="8"/>
<feComposite in2="hardAlpha" operator="arithmetic" k2="-1" k3="1"/>
<feColorMatrix type="matrix" values="0 0 0 0 1 0 0 0 0 1 0 0 0 0 1 0 0 0 0.2 0"/>
<feBlend mode="normal" in2="shape" result="effect1_innerShadow_18_3633"/>
<feColorMatrix in="SourceAlpha" type="matrix" values="0 0 0 0 0 0 0 0 0 0 0 0 0 0 0 0 0 0 127 0" result="hardAlpha"/>
<feOffset dy="-4"/>
<feComposite in2="hardAlpha" operator="arithmetic" k2="-1" k3="1"/>
<feColorMatrix type="matrix" values="0 0 0 0 0 0 0 0 0 0 0 0 0 0 0 0 0 0 0.25 0"/>
<feBlend mode="normal" in2="effect1_innerShadow_18_3633" result="effect2_innerShadow_18_3633"/>
</filter>
<radialGradient id="paint0_radial_18_3633" cx="0" cy="0" r="1" gradientUnits="userSpaceOnUse" gradientTransform="translate(256 256) rotate(90) scale(256)">
<stop stop-color="white" stop-opacity="0.7"/>
<stop offset="0.9" stop-color="white" stop-opacity="0.1"/>
</radialGradient>
<linearGradient id="paint1_linear_18_3633" x1="256" y1="115.728" x2="256" y2="396.276" gradientUnits="userSpaceOnUse">
<stop stop-color="#887A5E"/>
<stop offset="1" stop-color="#6A5F49"/>
</linearGradient>
<clipPath id="clip0_18_3633">
<rect width="512" height="512" rx="102.4" fill="white"/>
</clipPath>
<clipPath id="clip1_18_3633">
<rect width="358" height="280.553" fill="white" transform="matrix(-1 0 0 -1 435 396.276)"/>
</clipPath>
</defs>
</svg>
